!!!id: bhatk3186a
!!!vol: 3 
!!!page: 187
!!!antara: Vadi gandhara
!!!raag: bihag
!!!taal: teental
!!!tempo: madhyalaya
**kern
!!data: // >mP  -  S'  S'/  S'  -  S'  S'/  S'  >R'S'  N  P/  >m[P  S']  N  P/
==1
f#q
2g
4cc
4cc
=
2cc
4cc
4cc
=
4cc
ddq
4cc
4b
4g
=
f#q
4gH
4cch
4b
4g
!!data: // >PG  M  P  N/  S'  N  D  P/  G  M  P  G/  M  G  R  S/
==2
gq
4e
4f
4g
4b
=
4cc
4b
4a
4g
=
4e
4f
4g
4e
=
4f
4e
4d
4c
==
*-
